icons/svg/temperature-kelvin.svg

﻿<?xml version="1.0" encoding="utf-8"?>
<!DOCTYPE svg PUBLIC "-//W3C//DTD SVG 1.1//EN" "http://www.w3.org/Graphics/SVG/1.1/DTD/svg11.dtd">
<svg xmlns="http://www.w3.org/2000/svg" xmlns:xlink="http://www.w3.org/1999/xlink" version="1.1" baseProfile="full" width="24" height="24" viewBox="0 0 24.00 24.00" enable-background="new 0 0 24.00 24.00" xml:space="preserve">
	<path fill="#000000" fill-opacity="1" stroke-linejoin="round" d="M 5,3C 6.65685,3 8,4.34315 8,6C 8,7.65685 6.65686,9 5,9C 3.34315,9 2,7.65685 2,6C 2,4.34315 3.34315,3 5,3 Z M 5,5C 4.44771,5 4,5.44772 4,6C 4,6.55229 4.44771,7 5,7C 5.55228,7 6,6.55229 6,6C 6,5.44772 5.55228,5 5,5 Z M 10,5L 13,5L 13,11L 18,5L 22.0126,5L 16.8819,10.7762L 22,20L 18.3827,20L 14.756,13.1696L 13,15.1466L 13,20L 10,20L 10,5 Z "/>
</svg>

<svg xmlns="http://www.w3.org/2000/svg" version="1.1" baseProfile="full" width="24" height="24" viewBox="0 0 24.00 24.00" xml:space="preserve"><path fill="#000" fill-opacity="1" stroke-linejoin="round" d="M5 3c1.657 0 3 1.343 3 3S6.657 9 5 9 2 7.657 2 6s1.343-3 3-3zm0 2c-.552 0-1 .448-1 1s.448 1 1 1 1-.448 1-1-.448-1-1-1zm5 0h3v6l5-6h4.013l-5.13 5.776L22 20h-3.617l-3.627-6.83L13 15.147V20h-3V5z"/></svg>
